ОкеанВКонцеДороги/svg/ch1/balloon3.svg

<svg width="178" height="815" viewBox="0 0 178 815" fill="none" xmlns="http://www.w3.org/2000/svg">
<g opacity="0.11">
<path d="M83.6246 209.667C79.2582 215.581 75.2384 229.247 78.6711 250.683C82.0933 272.053 92.9062 300.979 117.912 337.18C149.685 383.178 146.777 425.609 133.019 455.969C127.443 468.272 120.086 478.593 112.542 486.369C117.306 489.261 122.3 493.267 127.402 498.632C137.139 508.87 138.636 523.185 135.83 539.191C133.021 555.216 125.83 573.358 117.624 591.705C109.375 610.152 100.143 628.718 93.0109 645.97C85.8746 663.231 81.0345 678.748 81.4393 690.917C83.1025 740.906 101.965 785.652 132.977 809.812L130.658 812.618C98.538 787.596 79.4234 741.692 77.738 691.037C77.3057 678.045 82.4335 661.906 89.5748 644.633C96.7199 627.351 106.076 608.505 114.229 590.276C122.425 571.948 129.452 554.152 132.18 538.592C134.91 523.014 133.263 510.098 124.68 501.074C119.499 495.626 114.528 491.714 109.886 488.996C109.024 489.813 108.162 490.597 107.302 491.345C102.659 495.387 98.0441 498.451 93.825 500.362C89.6542 502.251 85.6459 503.113 82.3293 502.414C79.3237 501.779 76.9902 500.59 75.4203 498.93C73.8289 497.248 73.1273 495.189 73.2364 493.073C73.4503 488.923 76.706 484.875 81.5795 482.47C88.2009 479.202 97.9742 478.752 109.241 484.523C116.697 476.987 124.07 466.791 129.63 454.523C142.911 425.217 145.859 384.097 114.837 339.186C89.6073 302.661 78.5361 273.247 75.0118 251.239C71.4981 229.297 75.4693 214.544 80.6164 207.573L83.6246 209.667ZM106.487 487.184C96.5451 482.418 88.3699 483.151 83.2542 485.676C79.1364 487.708 77.061 490.795 76.9345 493.249C76.8734 494.435 77.2492 495.545 78.1485 496.496C79.0695 497.469 80.6406 498.376 83.1191 498.899C85.2867 499.357 88.4055 498.85 92.2629 497.103C96.072 495.378 100.387 492.539 104.832 488.668C105.383 488.189 105.935 487.694 106.487 487.184Z" fill="#9CACC8"/>
<path d="M67.8417 207.269L57.9656 219.786C65.1165 220.107 79.3694 221.754 79.1737 225.777C78.9779 229.801 89.8583 224.576 95.323 221.461L80.0476 207.816C107.61 197.531 154.855 171.208 159.749 70.6257C162.757 8.78811 44.9805 -31.3623 18.0314 57.7922C-11.436 155.278 46.7608 196.123 67.8417 207.269Z" fill="#9CACC8"/>
</g>
</svg>

<svg xmlns="http://www.w3.org/2000/svg" width="178" height="815" fill="none" viewBox="0 0 178 815"><g fill="#9cacc8" opacity=".11"><path d="M83.625 209.667c-4.367 5.914-8.387 19.58-4.954 41.016 3.422 21.37 14.235 50.296 39.241 86.497 31.773 45.998 28.865 88.429 15.107 118.789-5.576 12.303-12.933 22.624-20.477 30.4 4.764 2.892 9.758 6.898 14.86 12.263 9.737 10.238 11.234 24.553 8.428 40.559-2.809 16.025-10 34.167-18.206 52.514-8.249 18.447-17.481 37.013-24.613 54.265-7.136 17.261-11.977 32.778-11.572 44.947 1.664 49.989 20.526 94.735 51.538 118.895l-2.319 2.806c-32.12-25.022-51.235-70.926-52.92-121.581-.432-12.992 4.695-29.131 11.837-46.404 7.145-17.282 16.501-36.128 24.654-54.357 8.196-18.328 15.223-36.124 17.951-51.684 2.73-15.578 1.083-28.494-7.5-37.518-5.181-5.448-10.152-9.36-14.794-12.078a82 82 0 0 1-2.584 2.349c-4.643 4.042-9.258 7.106-13.477 9.017-4.17 1.889-8.18 2.751-11.496 2.052-3.005-.635-5.339-1.824-6.909-3.484-1.591-1.682-2.293-3.741-2.184-5.857.214-4.15 3.47-8.198 8.343-10.603 6.622-3.268 16.395-3.718 27.662 2.053 7.456-7.536 14.829-17.732 20.389-30 13.281-29.306 16.229-70.426-14.793-115.337-25.23-36.525-36.3-65.939-39.825-87.947-3.514-21.942.457-36.695 5.604-43.666zm22.862 277.517c-9.942-4.766-18.117-4.033-23.233-1.508-4.118 2.032-6.193 5.119-6.32 7.573-.06 1.186.315 2.296 1.215 3.247.92.973 2.492 1.88 4.97 2.403 2.168.458 5.287-.049 9.144-1.796 3.809-1.725 8.124-4.564 12.569-8.435a74 74 0 0 0 1.655-1.484"/><path d="m67.842 207.269-9.876 12.517c7.15.321 21.403 1.968 21.208 5.991-.196 4.024 10.684-1.201 16.149-4.316l-15.275-13.645c27.562-10.285 74.807-36.608 79.701-137.19C162.757 8.788 44.981-31.362 18.031 57.792c-29.467 97.486 28.73 138.331 49.81 149.477"/></g></svg>
